svgs/duotone/island-tropical.svg

<svg xmlns="http://www.w3.org/2000/svg" viewBox="0 0 448 512"><!-- Font Awesome Pro 6.0.0-alpha2 by @fontawesome - https://fontawesome.com License - https://fontawesome.com/license (Commercial License) --><defs><style>.fa-secondary{opacity:.4}</style></defs><path d="M196 352C205.957 309.312 220.839 229.82 217.023 150.539L239.9 128H266.124C277.346 176.008 294.765 270.664 284.674 359.23C270.842 354.816 256.324 352 241.146 352H196Z" class="fa-secondary"/><path d="M336.498 32C301.625 32 270.874 45.875 250.25 67.125C235.749 28.25 193.749 0 143.499 0C87 0 40.25 35.375 32.125 81.625C31.625 85.25 32.625 89 35 91.75S40.875 96 44.625 96H80L95.999 64L112 96H142.124C108.001 131 102.501 182.875 127.625 218.625C132 224.75 140.749 225.875 146.124 220.5L240.009 128H367.999L383.998 96L400 128H435.373C439.125 128 442.625 126.5 445 123.75C447.374 121 448.374 117.25 447.874 113.625C439.75 67.375 393 32 336.498 32ZM383.629 474.75C386.503 494.25 371.627 512 351.878 512H32.107C12.358 512 -2.519 494.25 0.356 474.75C10.858 404.25 71.482 352 142.731 352H241.254C312.503 352 373.127 404.25 383.629 474.75Z" class="fa-primary"/></svg>

<svg xmlns="http://www.w3.org/2000/svg" viewBox="0 0 448 512"><!--! Font Awesome Pro 6.3.0 by @fontawesome - https://fontawesome.com License - https://fontawesome.com/license (Commercial License) Copyright 2023 Fonticons, Inc. --><defs><style>.fa-secondary{opacity:.4}</style></defs><path class="fa-primary" d="M336.5 32c-34.87 0-65.63 13.87-86.25 35.13C235.7 28.25 193.7 0 143.5 0C86.99 0 40.29 35.37 32.17 81.62C31.67 85.25 32.62 89 34.99 91.75C37.37 94.5 40.87 96 44.62 96h35.38L95.1 64l15.99 32h30.12c-34.12 35-39.62 86.87-14.5 122.6C131.1 224.7 140.7 225.9 146.1 220.5L240 128h128l15.97-32l16 32h35.37c3.752 0 7.251-1.5 9.626-4.25s3.375-6.5 2.875-10.13C439.7 67.37 393 32 336.5 32zM383.6 474.8C386.5 494.3 371.7 512 351.1 512H32.08c-19.75 0-34.59-17.75-31.72-37.25C10.86 404.3 71.49 352 142.7 352h98.52C312.5 352 373.1 404.3 383.6 474.8z"/><path class="fa-secondary" d="M196.1 352c9.957-42.69 24.84-122.2 21.02-201.5L240 128h26.23c11.22 48.01 28.64 142.7 18.54 231.2C270.9 354.8 256.4 352 241.3 352H196.1z"/></svg>
